X:203
T:Reel 203
M:4/4
K:Dmaj
L:1/8
AFEF DCDE|FGEG FAdB|AGFD DFAd|BGEF G2BG|FGEF DCDE|FGAB d2cd|BGED CDEG|FGEG FDD2|cded cAAd|cded fded|cded cded|cABc d2BA|cdef gfed|cABc dcAd|g2fg  (3fga ed|cABc dBAF|
